scripts/lut.cal
CAL

ORIGINATOR "vcgt"
DEVICE_CLASS "DISPLAY"
COLOR_REP "RGB"

NUMBER_OF_FIELDS 4
BEGIN_DATA_FORMAT
RGB_I RGB_R RGB_G RGB_B
END_DATA_FORMAT

NUMBER_OF_SETS 1024
BEGIN_DATA
0.00000000000000	0.00000000000000	0.00000000000000	0.00000000000000
0.00097751710655	0.00000327817570	0.00000327817570	0.00000327817570
0.00195503421310	0.00000630666717	0.00000630666717	0.00000630666717
0.00293255131965	0.00001026480726	0.00001026480726	0.00001026480726
0.00391006842620	0.00001531028664	0.00001531028664	0.00001531028664
0.00488758553275	0.00002159075797	0.00002159075797	0.00002159075797
0.00586510263930	0.00002925549504	0.00002925549504	0.00002925549504
0.00684261974585	0.00003845756718	0.00003845756718	0.00003845756718
0.00782013685239	0.00004935428653	0.00004935428653	0.00004935428653
0.00879765395894	0.00006210718697	0.00006210718697	0.00006210718697
0.00977517106549	0.00007688184593	0.00007688184593	0.00007688184593
0.01075268817204	0.00009384764684	0.00009384764684	0.00009384764684
0.01173020527859	0.00011317751818	0.00011317751818	0.00011317751818
0.01270772238514	0.00013504766415	0.00013504766415	0.00013504766415
0.01368523949169	0.00015963729393	0.00015963729393	0.00015963729393
0.01466275659824	0.00018712835314	0.00018712835314	0.00018712835314
0.01564027370479	0.00021770525919	0.00021770525919	0.00021770525919
0.01661779081134	0.00025155464192	0.00025155464192	0.00025155464192
0.01759530791789	0.00028886508998	0.00028886508998	0.00028886508998
0.01857282502444	0.00032982690366	0.00032982690366	0.00032982690366
0.01955034213099	0.00037463185430	0.00037463185430	0.00037463185430
0.02052785923754	0.00042347295058	0.00042347295058	0.00042347295058
0.02150537634409	0.00047654421187	0.00047654421187	0.00047654421187
0.02248289345064	0.00053404044871	0.00053404044871	0.00053404044871
0.02346041055718	0.00059615705043	0.00059615705043	0.00059615705043
0.02443792766373	0.00066308978008	0.00066308978008	0.00066308978008
0.02541544477028	0.00073503457652	0.00073503457652	0.00073503457652
0.02639296187683	0.00081218736375	0.00081218736375	0.00081218736375
0.02737047898338	0.00089474386741	0.00089474386741	0.00089474386741
0.02834799608993	0.00098289943838	0.00098289943838	0.00098289943838
0.02932551319648	0.00107684888339	0.00107684888339	0.00107684888339
0.03030303030303	0.00117678630269	0.00117678630269	0.00117678630269
0.03128054740958	0.00128290493446	0.00128290493446	0.00128290493446
0.03225806451613	0.00139539700603	0.00139539700603	0.00139539700603
0.03323558162268	0.00151445359177	0.00151445359177	0.00151445359177
0.03421309872923	0.00164026447741	0.00164026447741	0.00164026447741
0.03519061583578	0.00177301803087	0.00177301803087	0.00177301803087
0.03616813294233	0.00191290107922	0.00191290107922	0.00191290107922
0.03714565004888	0.00206009879187	0.00206009879187	0.00206009879187
0.03812316715543	0.00221479456966	0.00221479456966	0.00221479456966
0.03910068426197	0.00237716993985	0.00237716993985	0.00237716993985
0.04007820136852	0.00254740445674	0.00254740445674	0.00254740445674
0.04105571847507	0.00272567560785	0.00272567560785	0.00272567560785
0.04203323558162	0.00291215872553	0.00291215872553	0.00291215872553
0.04301075268817	0.00310702690376	0.00310702690376	0.00310702690376
0.04398826979472	0.00331045092010	0.00331045092010	0.00331045092010
0.04496578690127	0.00352259916248	0.00352259916248	0.00352259916248
0.04594330400782	0.00374363756092	0.00374363756092	0.00374363756092
0.04692082111437	0.00397372952382	0.00397372952382	0.00397372952382
0.04789833822092	0.00421303587874	0.00421303587874	0.00421303587874
0.04887585532747	0.00446171481759	0.00446171481759	0.00446171481759
0.04985337243402	0.00471992184597	0.00471992184597	0.00471992184597
0.05083088954057	0.00498780973664	0.00498780973664	0.00498780973664
0.05180840664712	0.00526552848688	0.00526552848688	0.00526552848688
0.05278592375367	0.00555322527968	0.00555322527968	0.00555322527968
0.05376344086022	0.00585104444851	0.00585104444851	0.00585104444851
0.05474095796676	0.00615912744576	0.00615912744576	0.00615912744576
0.05571847507331	0.00647761281440	0.00647761281440	0.00647761281440
0.05669599217986	0.00680663616308	0.00680663616308	0.00680663616308
0.05767350928641	0.00714633014422	0.00714633014422	0.00714633014422
0.05865102639296	0.00749682443525	0.00749682443525	0.00749682443525
0.05962854349951	0.00785824572269	0.00785824572269	0.00785824572269
0.06060606060606	0.00823071768899	0.00823071768899	0.00823071768899
0.06158357771261	0.00861436100211	0.00861436100211	0.00861436100211
0.06256109481916	0.00900929330766	0.00900929330766	0.00900929330766
0.06353861192571	0.00941562922338	0.00941562922338	0.00941562922338
0.06451612903226	0.00983348033616	0.00983348033616	0.00983348033616
0.06549364613881	0.01026295520111	0.01026295520111	0.01026295520111
0.06647116324536	0.01070415934296	0.01070415934296	0.01070415934296
0.06744868035191	0.01115719525934	0.01115719525934	0.01115719525934
0.06842619745846	0.01162216242616	0.01162216242616	0.01162216242616
0.06940371456500	0.01209915730478	0.01209915730478	0.01209915730478
0.07038123167155	0.01258827335097	0.01258827335097	0.01258827335097
0.07135874877810	0.01308960102560	0.01308960102560	0.01308960102560
0.07233626588465	0.01360322780685	0.01360322780685	0.01360322780685
0.07331378299120	0.01412923820407	0.01412923820407	0.01412923820407
0.07429130009775	0.01466771377300	0.01466771377300	0.01466771377300
0.07526881720430	0.01521873313240	0.01521873313240	0.01521873313240
0.07624633431085	0.01578237198199	0.01578237198199	0.01578237198199
0.07722385141740	0.01635870312160	0.01635870312160	0.01635870312160
0.07820136852395	0.01694779647150	0.01694779647150	0.01694779647150
0.07917888563050	0.01754971909383	0.01754971909383	0.01754971909383
0.08015640273705	0.01816453521505	0.01816453521505	0.01816453521505
0.08113391984360	0.01879230624939	0.01879230624939	0.01879230624939
0.08211143695015	0.01943309082318	0.01943309082318	0.01943309082318
0.08308895405670	0.02008694480006	0.02008694480006	0.02008694480006
0.08406647116325	0.02075392130701	0.02075392130701	0.02075392130701
0.08504398826979	0.02143407076106	0.02143407076106	0.02143407076106
0.08602150537634	0.02212744089681	0.02212744089681	0.02212744089681
0.08699902248289	0.02283407679445	0.02283407679445	0.02283407679445
0.08797653958944	0.02355402090853	0.02355402090853	0.02355402090853
0.08895405669599	0.02428731309721	0.02428731309721	0.02428731309721
0.08993157380254	0.02503399065199	0.02503399065199	0.02503399065199
0.09090909090909	0.02579408832800	0.02579408832800	0.02579408832800
0.09188660801564	0.02656763837465	0.02656763837465	0.02656763837465
0.09286412512219	0.02735467056667	0.02735467056667	0.02735467056667
0.09384164222874	0.02815521223557	0.02815521223557	0.02815521223557
0.09481915933529	0.02896928830131	0.02896928830131	0.02896928830131
0.09579667644184	0.02979692130438	0.02979692130438	0.02979692130438
0.09677419354839	0.03063813143799	0.03063813143799	0.03063813143799
0.09775171065494	0.03149293658062	0.03149293658062	0.03149293658062
0.09872922776149	0.03236135232864	0.03236135232864	0.03236135232864
0.09970674486804	0.03324339202915	0.03324339202915	0.03324339202915
0.10068426197458	0.03413906681294	0.03413906681294	0.03413906681294
0.10166177908113	0.03504838562756	0.03504838562756	0.03504838562756
0.10263929618768	0.03597135527045	0.03597135527045	0.03597135527045
0.10361681329423	0.03690798042214	0.03690798042214	0.03690798042214
0.10459433040078	0.03785826367950	0.03785826367950	0.03785826367950
0.10557184750733	0.03882220558892	0.03882220558892	0.03882220558892
0.10654936461388	0.03979980467964	0.03979980467964	0.03979980467964
0.10752688172043	0.04079105749683	0.04079105749683	0.04079105749683
0.10850439882698	0.04179595863483	0.04179595863483	0.04179595863483
0.10948191593353	0.04281450077018	0.04281450077018	0.04281450077018
0.11045943304008	0.04384667469465	0.04384667469465	0.04384667469465
0.11143695014663	0.04489246934808	0.04489246934808	0.04489246934808
0.11241446725318	0.04595187185122	0.04595187185122	0.04595187185122
0.11339198435973	0.04702486753831	0.04702486753831	0.04702486753831
0.11436950146628	0.04811143998962	0.04811143998962	0.04811143998962
0.11534701857283	0.04921157106378	0.04921157106378	0.04921157106378
0.11632453567937	0.05032524092993	0.05032524092993	0.05032524092993
0.11730205278592	0.05145242809972	0.05145242809972	0.05145242809972
0.11827956989247	0.05259310945909	0.05259310945909	0.05259310945909
0.11925708699902	0.05374726029984	0.05374726029984	0.05374726029984
0.12023460410557	0.05491485435103	0.05491485435103	0.05491485435103
0.12121212121212	0.05609586381009	0.05609586381009	0.05609586381009
0.12218963831867	0.05729025937374	0.05729025937374	0.05729025937374
0.12316715542522	0.05849801026866	0.05849801026866	0.05849801026866
0.12414467253177	0.05971908428191	0.05971908428191	0.05971908428191
0.12512218963832	0.06095344779109	0.06095344779109	0.06095344779109
0.12609970674487	0.06220106579424	0.06220106579424	0.06220106579424
0.12707722385142	0.06346190193946	0.06346190193946	0.06346190193946
0.12805474095797	0.06473591855431	0.06473591855431	0.06473591855431
0.12903225806452	0.06602307667480	0.06602307667480	0.06602307667480
0.13000977517107	0.06732333607429	0.06732333607429	0.06732333607429
0.13098729227761	0.06863665529188	0.06863665529188	0.06863665529188
0.13196480938416	0.06996299166071	0.06996299166071	0.06996299166071
0.13294232649071	0.07130230133581	0.07130230133581	0.07130230133581
0.13391984359726	0.07265453932174	0.07265453932174	0.07265453932174
0.13489736070381	0.07401965949989	0.07401965949989	0.07401965949989
0.13587487781036	0.07539761465546	0.07539761465546	0.07539761465546
0.13685239491691	0.07678835650419	0.07678835650419	0.07678835650419
0.13782991202346	0.07819183571869	0.07819183571869	0.07819183571869
0.13880742913001	0.07960800195454	0.07960800195454	0.07960800195454
0.13978494623656	0.08103680387603	0.08103680387603	0.08103680387603
0.14076246334311	0.08247818918161	0.08247818918161	0.08247818918161
0.14173998044966	0.08393210462898	0.08393210462898	0.08393210462898
0.14271749755621	0.08539849605991	0.08539849605991	0.08539849605991
0.14369501466276	0.08687730842472	0.08687730842472	0.08687730842472
0.14467253176931	0.08836848580646	0.08836848580646	0.08836848580646
0.14565004887586	0.08987197144472	0.08987197144472	0.08987197144472
0.14662756598240	0.09138770775918	0.09138770775918	0.09138770775918
0.14760508308895	0.09288767559583	0.09288767559583	0.09288767559583
0.14858260019550	0.09437925193612	0.09437925193612	0.09437925193612
0.14956011730205	0.09586607199096	0.09586607199096	0.09586607199096
0.15053763440860	0.09734819001599	0.09734819001599	0.09734819001599
0.15151515151515	0.09882565982058	0.09882565982058	0.09882565982058
0.15249266862170	0.10029853473176	0.10029853473176	0.10029853473176
0.15347018572825	0.10176686756343	0.10176686756343	0.10176686756343
0.15444770283480	0.10323071059009	0.10323071059009	0.10323071059009
0.15542521994135	0.10469011552483	0.10469011552483	0.10469011552483
0.15640273704790	0.10614513350085	0.10614513350085	0.10614513350085
0.15738025415445	0.10759581505625	0.10759581505625	0.10759581505625
0.15835777126100	0.10904221012176	0.10904221012176	0.10904221012176
0.15933528836755	0.11048436801096	0.11048436801096	0.11048436801096
0.16031280547410	0.11192233741281	0.11192233741281	0.11192233741281
0.16129032258065	0.11335616638619	0.11335616638619	0.11335616638619
0.16226783968719	0.11478590235622	0.11478590235622	0.11478590235622
0.16324535679374	0.11621159211223	0.11621159211223	0.11621159211223
0.16422287390029	0.11763328180698	0.11763328180698	0.11763328180698
0.16520039100684	0.11905101695734	0.11905101695734	0.11905101695734
0.16617790811339	0.12046484244581	0.12046484244581	0.12046484244581
0.16715542521994	0.12187480252324	0.12187480252324	0.12187480252324
0.16813294232649	0.12328094081224	0.12328094081224	0.12328094081224
0.16911045943304	0.12468330031140	0.12468330031140	0.12468330031140
0.17008797653959	0.12608192340014	0.12608192340014	0.12608192340014
0.17106549364614	0.12747685184412	0.12747685184412	0.12747685184412
0.17204301075269	0.12886812680117	0.12886812680117	0.12886812680117
0.17302052785924	0.13025578882758	0.13025578882758	0.13025578882758
0.17399804496579	0.13163987788483	0.13163987788483	0.13163987788483
0.17497556207234	0.13302043334656	0.13302043334656	0.13302043334656
0.17595307917889	0.13439749400586	0.13439749400586	0.13439749400586
0.17693059628544	0.13577109808270	0.13577109808270	0.13577109808270
0.17790811339198	0.13714128323163	0.13714128323163	0.13714128323163
0.17888563049853	0.13850808654954	0.13850808654954	0.13850808654954
0.17986314760508	0.13987154458357	0.13987154458357	0.13987154458357
0.18084066471163	0.14123169333914	0.14123169333914	0.14123169333914
0.18181818181818	0.14258856828793	0.14258856828793	0.14258856828793
0.18279569892473	0.14394220437603	0.14394220437603	0.14394220437603
0.18377321603128	0.14529263603201	0.14529263603201	0.14529263603201
0.18475073313783	0.14663989717502	0.14663989717502	0.14663989717502
0.18572825024438	0.14798402122292	0.14798402122292	0.14798402122292
0.18670576735093	0.14932504110028	0.14932504110028	0.14932504110028
0.18768328445748	0.15066298924647	0.15066298924647	0.15066298924647
0.18866080156403	0.15199789762354	0.15199789762354	0.15199789762354
0.18963831867058	0.15332979772421	0.15332979772421	0.15332979772421
0.19061583577713	0.15465872057965	0.15465872057965	0.15465872057965
0.19159335288368	0.15598469676727	0.15598469676727	0.15598469676727
0.19257086999022	0.15730775641838	0.15730775641838	0.15730775641838
0.19354838709677	0.15862792922578	0.15862792922578	0.15862792922578
0.19452590420332	0.15994524445125	0.15994524445125	0.15994524445125
0.19550342130987	0.16125973093297	0.16125973093297	0.16125973093297
0.19648093841642	0.16257141709280	0.16257141709280	0.16257141709280
0.19745845552297	0.16388033094347	0.16388033094347	0.16388033094347
0.19843597262952	0.16518650009570	0.16518650009570	0.16518650009570
0.19941348973607	0.16648995176513	0.16648995176513	0.16648995176513
0.20039100684262	0.16779071277926	0.16779071277926	0.16779071277926
0.20136852394917	0.16908880958416	0.16908880958416	0.16908880958416
0.20234604105572	0.17038426825114	0.17038426825114	0.17038426825114
0.20332355816227	0.17167711448334	0.17167711448334	0.17167711448334
0.20430107526882	0.17296737362209	0.17296737362209	0.17296737362209
0.20527859237537	0.17425507065329	0.17425507065329	0.17425507065329
0.20625610948192	0.17554023021360	0.17554023021360	0.17554023021360
0.20723362658847	0.17682287659655	0.17682287659655	0.17682287659655
0.20821114369501	0.17810303375855	0.17810303375855	0.17810303375855
0.20918866080156	0.17938072532475	0.17938072532475	0.17938072532475
0.21016617790811	0.18065597459482	0.18065597459482	0.18065597459482
0.21114369501466	0.18192880454868	0.18192880454868	0.18192880454868
0.21212121212121	0.18319923785198	0.18319923785198	0.18319923785198
0.21309872922776	0.18446729686165	0.18446729686165	0.18446729686165
0.21407624633431	0.18573300363119	0.18573300363119	0.18573300363119
0.21505376344086	0.18699637991600	0.18699637991600	0.18699637991600
0.21603128054741	0.18825744717847	0.18825744717847	0.18825744717847
0.21700879765396	0.18951622659313	0.18951622659313	0.18951622659313
0.21798631476051	0.19077273905153	0.19077273905153	0.19077273905153
0.21896383186706	0.19202700516714	0.19202700516714	0.19202700516714
0.21994134897361	0.19327904528018	0.19327904528018	0.19327904528018
0.22091886608016	0.19452887946220	0.19452887946220	0.19452887946220
0.22189638318671	0.19577652752079	0.19577652752079	0.19577652752079
0.22287390029326	0.19702200900398	0.19702200900398	0.19702200900398
0.22385141739980	0.19826534320475	0.19826534320475	0.19826534320475
0.22482893450635	0.19950654916528	0.19950654916528	0.19950654916528
0.22580645161290	0.20074564568126	0.20074564568126	0.20074564568126
0.22678396871945	0.20198265130601	0.20198265130601	0.20198265130601
0.22776148582600	0.20321758435460	0.20321758435460	0.20321758435460
0.22873900293255	0.20445046290780	0.20445046290780	0.20445046290780
0.22971652003910	0.20568130481608	0.20568130481608	0.20568130481608
0.23069403714565	0.20691012770339	0.20691012770339	0.20691012770339
0.23167155425220	0.20813694897097	0.20813694897097	0.20813694897097
0.23264907135875	0.20936178580102	0.20936178580102	0.20936178580102
0.23362658846530	0.21058465516038	0.21058465516038	0.21058465516038
0.23460410557185	0.21180557380401	0.21180557380401	0.21180557380401
0.23558162267840	0.21302455827855	0.21302455827855	0.21302455827855
0.23655913978495	0.21424162492571	0.21424162492571	0.21424162492571
0.23753665689150	0.21545678988559	0.21545678988559	0.21545678988559
0.23851417399804	0.21667006910003	0.21667006910003	0.21667006910003
0.23949169110459	0.21788147831577	0.21788147831577	0.21788147831577
0.24046920821114	0.21909103308767	0.21909103308767	0.21909103308767
0.24144672531769	0.22029874878178	0.22029874878178	0.22029874878178
0.24242424242424	0.22150464057835	0.22150464057835	0.22150464057835
0.24340175953079	0.22270872347489	0.22270872347489	0.22270872347489
0.24437927663734	0.22391101228901	0.22391101228901	0.22391101228901
0.24535679374389	0.22511152166133	0.22511152166133	0.22511152166133
0.24633431085044	0.22631026605832	0.22631026605832	0.22631026605832
0.24731182795699	0.22750725977498	0.22750725977498	0.22750725977498
0.24828934506354	0.22870251693762	0.22870251693762	0.22870251693762
0.24926686217009	0.22989605150648	0.22989605150648	0.22989605150648
0.25024437927664	0.23108787727835	0.23108787727835	0.23108787727835
0.25122189638319	0.23227800788909	0.23227800788909	0.23227800788909
0.25219941348974	0.23346645681619	0.23346645681619	0.23346645681619
0.25317693059629	0.23465323738118	0.23465323738118	0.23465323738118
0.25415444770283	0.23583836275206	0.23583836275206	0.23583836275206
0.25513196480938	0.23702184594569	0.23702184594569	0.23702184594569
0.25610948191593	0.23820369983007	0.23820369983007	0.23820369983007
0.25708699902248	0.23938393712666	0.23938393712666	0.23938393712666
0.25806451612903	0.24056257041257	0.24056257041257	0.24056257041257
0.25904203323558	0.24173961212280	0.24173961212280	0.24173961212280
0.26001955034213	0.24291507455237	0.24291507455237	0.24291507455237
0.26099706744868	0.24408896985845	0.24408896985845	0.24408896985845
0.26197458455523	0.24526131006239	0.24526131006239	0.24526131006239
0.26295210166178	0.24643210705184	0.24643210705184	0.24643210705184
0.26392961876833	0.24760137258266	0.24760137258266	0.24760137258266
0.26490713587488	0.24876911828094	0.24876911828094	0.24876911828094
0.26588465298143	0.24993535564492	0.24993535564492	0.24993535564492
0.26686217008798	0.25110009604683	0.25110009604683	0.25110009604683
0.26783968719453	0.25226335073483	0.25226335073483	0.25226335073483
0.26881720430108	0.25342513083479	0.25342513083479	0.25342513083479
0.26979472140762	0.25458544735204	0.25458544735204	0.25458544735204
0.27077223851417	0.25574431117322	0.25574431117322	0.25574431117322
0.27174975562072	0.25690173306792	0.25690173306792	0.25690173306792
0.27272727272727	0.25805772369045	0.25805772369045	0.25805772369045
0.27370478983382	0.25921229358142	0.25921229358142	0.25921229358142
0.27468230694037	0.26036545316946	0.26036545316946	0.26036545316946
0.27565982404692	0.26151721277278	0.26151721277278	0.26151721277278
0.27663734115347	0.26266758260074	0.26266758260074	0.26266758260074
0.27761485826002	0.26381657275546	0.26381657275546	0.26381657275546
0.27859237536657	0.26496419323326	0.26496419323326	0.26496419323326
0.27956989247312	0.26611045392621	0.26611045392621	0.26611045392621
0.28054740957967	0.26725536462360	0.26725536462360	0.26725536462360
0.28152492668622	0.26839893501335	0.26839893501335	0.26839893501335
0.28250244379277	0.26954117468347	0.26954117468347	0.26954117468347
0.28347996089932	0.27068209312343	0.27068209312343	0.27068209312343
0.28445747800587	0.27182169972552	0.27182169972552	0.27182169972552
0.28543499511241	0.27296000378623	0.27296000378623	0.27296000378623
0.28641251221896	0.27409701450756	0.27409701450756	0.27409701450756
0.28739002932551	0.27523274099829	0.27523274099829	0.27523274099829
0.28836754643206	0.27636719227532	0.27636719227532	0.27636719227532
0.28934506353861	0.27750037726486	0.27750037726486	0.27750037726486
0.29032258064516	0.27863230480373	0.27863230480373	0.27863230480373
0.29130009775171	0.27976298364051	0.27976298364051	0.27976298364051
0.29227761485826	0.28089242243679	0.28089242243679	0.28089242243679
0.29325513196481	0.28202062976830	0.28202062976830	0.28202062976830
0.29423264907136	0.28314761412611	0.28314761412611	0.28314761412611
0.29521016617791	0.28427338391771	0.28427338391771	0.28427338391771
0.29618768328446	0.28539794746819	0.28539794746819	0.28539794746819
0.29716520039101	0.28652131302128	0.28652131302128	0.28652131302128
0.29814271749756	0.28764348874044	0.28764348874044	0.28764348874044
0.29912023460411	0.28876448270995	0.28876448270995	0.28876448270995
0.30009775171065	0.28988430293596	0.28988430293596	0.28988430293596
0.30107526881720	0.29100295734745	0.29100295734745	0.29100295734745
0.30205278592375	0.29212045379732	0.29212045379732	0.29212045379732
0.30303030303030	0.29323680006331	0.29323680006331	0.29323680006331
0.30400782013685	0.29435200384905	0.29435200384905	0.29435200384905
0.30498533724340	0.29546607278497	0.29546607278497	0.29546607278497
0.30596285434995	0.29657901442927	0.29657901442927	0.29657901442927
0.30694037145650	0.29769083626883	0.29769083626883	0.29769083626883
0.30791788856305	0.29880154572013	0.29880154572013	0.29880154572013
0.30889540566960	0.29991115013019	0.29991115013019	0.29991115013019
0.30987292277615	0.30101965677741	0.30101965677741	0.30101965677741
0.31085043988270	0.30212707287244	0.30212707287244	0.30212707287244
0.31182795698925	0.30323340555908	0.30323340555908	0.30323340555908
0.31280547409580	0.30433866191509	0.30433866191509	0.30433866191509
0.31378299120235	0.30544284895304	0.30544284895304	0.30544284895304
0.31476050830890	0.30654597362110	0.30654597362110	0.30654597362110
0.31573802541544	0.30764804280390	0.30764804280390	0.30764804280390
0.31671554252199	0.30874906332325	0.30874906332325	0.30874906332325
0.31769305962854	0.30984904193901	0.30984904193901	0.30984904193901
0.31867057673509	0.31094798534975	0.31094798534975	0.31094798534975
0.31964809384164	0.31204590019361	0.31204590019361	0.31204590019361
0.32062561094819	0.31314279304898	0.31314279304898	0.31314279304898
0.32160312805474	0.31423867043527	0.31423867043527	0.31423867043527
0.32258064516129	0.31533353881358	0.31533353881358	0.31533353881358
0.32355816226784	0.31642740458749	0.31642740458749	0.31642740458749
0.32453567937439	0.31752027410369	0.31752027410369	0.31752027410369
0.32551319648094	0.31861215365269	0.31861215365269	0.31861215365269
0.32649071358749	0.31970304946953	0.31970304946953	0.31970304946953
0.32746823069404	0.32079296773440	0.32079296773440	0.32079296773440
0.32844574780059	0.32188191457334	0.32188191457334	0.32188191457334
0.32942326490714	0.32296989605887	0.32296989605887	0.32296989605887
0.33040078201369	0.32405691821061	0.32405691821061	0.32405691821061
0.33137829912023	0.32514298699594	0.32514298699594	0.32514298699594
0.33235581622678	0.32622810833063	0.32622810833063	0.32622810833063
0.33333333333333	0.32731228807939	0.32731228807939	0.32731228807939
0.33431085043988	0.32839553205655	0.32839553205655	0.32839553205655
0.33528836754643	0.32947784602658	0.32947784602658	0.32947784602658
0.33626588465298	0.33055923570475	0.33055923570475	0.33055923570475
0.33724340175953	0.33163970675762	0.33163970675762	0.33163970675762
0.33822091886608	0.33271926480368	0.33271926480368	0.33271926480368
0.33919843597263	0.33379791541388	0.33379791541388	0.33379791541388
0.34017595307918	0.33487566411216	0.33487566411216	0.33487566411216
0.34115347018573	0.33595251637603	0.33595251637603	0.33595251637603
